X: 18494
T: I Bokskogen
R: mazurka
M: 3/4
K: Gmajor
|:gf/g/ ec eg|dB/d/ cA/c/ B2|ce/d/ cB AG|FG AF D2|
d/g/f/g/ ec eg|dB/d/ cA/c/ B2|ce/d/ cB AG|D/G/F/A/ AB/A/ G2:|
|:DG/F/ FA/G/ GB/A/|Ac/B/ B/d/c/e/ ed|D/G/G/F/ F/A/A/G/ G/B/B/A/|A/c/c/B/ B/d/c/e/ ed|
c/d/e e>c d/c/B/A/|Gd d>B c/B/A/G/|Gg/f/ ed/c/ B/c/d/e/|1 d/c/B/A/ AB/A/ GF/E/:|2 d/c/B/A/ AB/A/ G2||

